assets/img/braze_icons/shopping-bag-01.svg

<svg fill="none" height="24" viewBox="0 0 24 24" width="24" xmlns="http://www.w3.org/2000/svg"><g fill="#801ed7"><path d="m6.80003.999784-.06146-.000131c-.22687-.000718-.5124-.001621-.78777.077027-.23846.0681-.46217.17995-.65972.32986-.22814.17311-.39873.40207-.53428.584l-.03677.04924-1.47019 1.96022c-.13645.18193-.20468.27289-.23012.36039-.07105.24433.06563.5177.30372.60746.08527.03215.20036.03215.43054.03215h16.49212c.2302 0 .3453 0 .4305-.03215.2381-.08976.3748-.36313.3037-.60746-.0254-.0875-.0936-.17846-.2301-.36039l-1.4702-1.96022-.0367-.04925c-.1356-.18192-.3062-.4109-.5343-.58399-.1976-.14991-.4213-.26176-.6597-.32986-.2754-.078648-.5609-.077745-.7878-.077027l-.0615.000131z"/><path clip-rule="evenodd" d="m22.0001 8.6c0-.56005 0-.84008-.109-1.05399-.0959-.18816-.2489-.34114-.437-.43702-.214-.10899-.494-.10899-1.054-.10899h-16.8001c-.56005 0-.84008 0-1.05399.10899-.18817.09588-.34115.24886-.43702.43702-.10899.21391-.10899.49394-.10899 1.054l.00003 10.23829c-.00002.5272-.00003.9819.03057 1.3565.0323.3954.10362.7886.29641 1.167.28762.5644.74656 1.0234 1.31105 1.311.37838.1928.7716.2641 1.16694.2964.37457.0306.82932.0306 1.35646.0306h11.67714c.5271 0 .9819 0 1.3565-.0306.3953-.0323.7885-.1036 1.1669-.2964.5645-.2876 1.0234-.7466 1.311-1.311.1928-.3784.2642-.7716.2965-1.167.0306-.3746.0305-.8293.0305-1.3564zm-14.00008 1.4c.55229 0 1 .4477 1 1 0 .7956.31607 1.5587.87868 2.1213.5626.5626 1.3257.8787 2.1213.8787.7957 0 1.5587-.3161 2.1213-.8787.5627-.5626.8787-1.3257.8787-2.1213 0-.5523.4477-1 1-1s1 .4477 1 1c0 1.3261-.5268 2.5979-1.4644 3.5355-.9377.9377-2.2095 1.4645-3.5356 1.4645s-2.59783-.5268-3.53551-1.4645c-.93768-.9376-1.46447-2.2094-1.46447-3.5355 0-.5523.44772-1 1-1z" fill-rule="evenodd"/></g></svg>

<svg width="24" height="24" viewBox="0 0 24 24" fill="none" xmlns="http://www.w3.org/2000/svg">
<path d="M6.80003 0.999784L6.73857 0.999653C6.5117 0.998935 6.22617 0.998032 5.9508 1.07668C5.71234 1.14478 5.48863 1.25663 5.29108 1.40654C5.06294 1.57965 4.89235 1.80861 4.7568 1.99054L4.72003 2.03978L3.24984 4C3.11339 4.18193 3.04516 4.27289 3.01972 4.36039C2.94867 4.60472 3.08535 4.87809 3.32344 4.96785C3.40871 5 3.5238 5 3.75398 5H20.2461C20.4763 5 20.5914 5 20.6766 4.96785C20.9147 4.87809 21.0514 4.60472 20.9803 4.36039C20.9549 4.27289 20.8867 4.18193 20.7502 4L19.28 2.03978L19.2433 1.99053C19.1077 1.80861 18.9371 1.57963 18.709 1.40654C18.5114 1.25663 18.2877 1.14478 18.0493 1.07668C17.7739 0.998032 17.4884 0.998935 17.2615 0.999653L17.2 0.999784H6.80003Z" fill="#801ED7"/>
<path fill-rule="evenodd" clip-rule="evenodd" d="M22.0001 8.6C22.0001 8.03995 22.0001 7.75992 21.8911 7.54601C21.7952 7.35785 21.6422 7.20487 21.4541 7.10899C21.2401 7 20.9601 7 20.4001 7H3.6C3.03995 7 2.75992 7 2.54601 7.10899C2.35784 7.20487 2.20486 7.35785 2.10899 7.54601C2 7.75992 2 8.03995 2 8.60001L2.00003 18.8383C2.00001 19.3655 2 19.8202 2.0306 20.1948C2.0629 20.5902 2.13422 20.9834 2.32701 21.3618C2.61463 21.9262 3.07357 22.3852 3.63806 22.6728C4.01644 22.8656 4.40966 22.9369 4.805 22.9692C5.17957 22.9998 5.63432 22.9998 6.16146 22.9998L17.8386 22.9998C18.3657 22.9998 18.8205 22.9998 19.1951 22.9692C19.5904 22.9369 19.9836 22.8656 20.362 22.6728C20.9265 22.3852 21.3854 21.9262 21.673 21.3618C21.8658 20.9834 21.9372 20.5902 21.9695 20.1948C22.0001 19.8202 22 19.3655 22 18.8384L22.0001 8.6ZM8.00002 10C8.55231 10 9.00002 10.4477 9.00002 11C9.00002 11.7956 9.31609 12.5587 9.8787 13.1213C10.4413 13.6839 11.2044 14 12 14C12.7957 14 13.5587 13.6839 14.1213 13.1213C14.684 12.5587 15 11.7956 15 11C15 10.4477 15.4477 10 16 10C16.5523 10 17 10.4477 17 11C17 12.3261 16.4732 13.5979 15.5356 14.5355C14.5979 15.4732 13.3261 16 12 16C10.6739 16 9.40217 15.4732 8.46449 14.5355C7.52681 13.5979 7.00002 12.3261 7.00002 11C7.00002 10.4477 7.44774 10 8.00002 10Z" fill="#801ED7"/>
</svg>
